X: 1
T: Sharon Shannon Polka
C: by Sharon Shannon
O: arr. Yannig Alory
R: polka
S: Fiddle Hell Online 2021-11-7
Z: 2022 John Chambers <jc:trillian.mit.edu>
M: 4/4
L: 1/8
K: A
|: E2(EF) (AB)F2 | (EF)(Ac) B2(AF) | E2(EF) (AB)F2 |1 (ec) B(c/B/ A2)(AF) :|2 (ec) B(c/B/ A2)(Ac) ||
|: B2 BA cefa | a(f e)(a/f/ e)(fec) | B2BA cefa |1 a(fe)(A c)(BAc) :|2 afeA cBAF |]
